!!!OTL: Vergebliche Warnung (80c), S. 220
!!!id: T0234
**kern
*clefG2
*k[b-]
*F:
{8f
=1
8f
8a
4cc
4cc
=2
8b-
4a
8g}
8r
=3
{8f
=4
8f
8f
4dd
4dd
=5
8cc
8b-
4a}
8r
=6
{8f
=7
8f
8a
4cc
4ff
=8
2dd}
8r
=9
{8cc
=10
8dd
8cc
4cc
8cc
8b-
=11
2a}
8r
==
*-
!!!minrhy: 8
!!!meters: 3/4 ]  ZZ[4
!!!cut: Vergebliche Warnung (80c), S. 220
!!!reg: Luxemburg
!!!trd: Singendes Volk, Esch-Alzette 1937 posth.
!!!rhy1: X  XXX_X_  XX_X0
!!!rhy2: X  XXX_X_  XXX_0
!!!key: T0234  08  F 3/4 ]  ZZ[4
!!!mod: SECHSTONSKALA DUR ?]  AMBITUS[8
!!!kad: 2363
!!!akz: 14_15_16_63_
!!!fot: 'a__b__c__d__
!!!for: 'a__b__aw_c__
!!!fok: '^a_^a_^a_\__
!! PHRAS[AUFTAKTIG]
!!!fkt: Liebeslieder
!!!bem: Heffingen, hhh Nikolaus Ewen , 2.6.1935
!! THILL, Mathias:
!! PR[33] 2K[3] 2G[17] 3K[6] 3G[3] 4A[3] 4Ü[0] 5A[0] 6K[0] 6G[0]
!! 7K[0] 7G[0] 8A[0] MEHR[0] SI[31] ABS[36] SR[19] SP[11]
!! ST[8] 2k[6] 2g[22] 3k[6] 3g[3] 4d[0] 4ü[0] 5d[0] 6k[0] 6g[0]
!! 7k[0] 7g[0] 8d[0] mehr[0] si[36] dm[-5] sr[28] sp[8]
!! 1F[46] 2F[49] 3F[5] 4F[0] LF[0] 2P[0] 3P[0] 4P[0] TRI[0] DF[3] AB[39]
!! TF[0] U3K[0] U3[0] U4[0] U4Ü[0] U5[11] U6K[0] U6[16] U7K[0] U7[0]
!! N1[19] N2K[0] N2[14] N3K[0] N3[16] N4[11] N4Ü[0] N5[11] N6K[0] N6[3]
!!!n7k: 0] N7[0] O1[0] O2K[0] O2[0] O3K[0] O3[0] HÖ[0
